X:1
T: Miss Stewart of Fasnacloich
C:
R:Strathspey
Q: 232
K:A
M:4/4
L:1/16
e2|:AA3 e2c2 e4 e2c2|fga2 e2c2 f2B2 B2a2|AA3 e2c2 e4 c2e2|1a2f2 e2d2 e2A2 A2e2:|2a2f2 e2d2 e2A2 A2g2|
|:a4 a2e2 f2e2 c2e2|a4 a2e2 f2B2 B2g2|a4 a2e2 f2e2 c2e2|1fga2 e2c2 e2A2 A2g2:|2fga2 e2c2 e2A2 A2e2|
|:AA3 e2A2 f2A2 e2A2|a2A2 e2c2 f2B2 B2a2|AA3 e2c2 f2A2 A2a2|1fga2 e2c2 e2A2 A2e2:|2fga2 e2c2 e2A2 A2fg|
|:a2e2 c2e2 f2e2 c2e2|a2e2 c2e2 f2e2 c2e2|a2e2 c2e2 f2e2 c2e2|1fga2 e2c2 e2A2 A2fg:|2fga2 e2c2 e2A2 A2||
